svgs/thin/award.svg

<svg xmlns="http://www.w3.org/2000/svg" viewBox="0 0 384 512"><!--! Font Awesome Pro 6.3.0 by @fontawesome - https://fontawesome.com License - https://fontawesome.com/license (Commercial License) Copyright 2023 Fonticons, Inc. --><path d="M167.3 406.7c-4.188-1.672-8.75 .2969-10.44 4.375l-32.72 79.95C122.3 495.4 118.3 495.9 117.1 496c-1.156 .0469-5.281-.0938-7.5-4.375l-24.16-47.69c-1.625-3.219-5.156-4.969-8.688-4.234l-51.13 10.23c-4.188 .8438-6.812-1.641-7.719-2.719c-.9062-1.109-2.875-4.094-1.281-8.094l31.53-79.36c1.625-4.109-.375-8.75-4.469-10.39c-4-1.531-8.75 .3594-10.41 4.484l-31.53 79.36c-3.25 8.188-1.781 17.48 3.875 24.25c5.656 6.75 14.5 9.914 23.12 8.148l45.19-9.035l21.43 42.27C99.49 507 107.6 512 116.7 512c.3438 0 .6641-.0117 1.008-.0273c9.5-.3906 17.65-6.098 21.24-14.88l32.72-79.95C173.3 413 171.4 408.4 167.3 406.7zM249.9 361.3c6.602 0 13.5 .752 20.06 .752c6.566 0 12.78-.7559 18.01-3.775c13.98-8.088 17.53-30.04 28.88-41.39c11.35-11.35 33.3-14.88 41.39-28.87c7.98-13.79 .1658-34.54 4.373-50.29C366.7 222.5 383.1 208.5 383.1 192c0-16.5-17.27-30.52-21.34-45.73c-4.207-15.75 3.612-36.5-4.365-50.29c-8.086-13.98-30.03-17.52-41.38-28.87c-11.35-11.35-14.89-33.3-28.87-41.39c-5.227-3.025-11.46-3.785-18.03-3.785c-6.547 0-13.43 .748-20.03 .748c-4.258 0-8.391-.3125-12.23-1.338C222.5 17.27 208.5 0 192 0C175.5 0 161.5 17.27 146.3 21.34c-3.832 1.023-7.957 1.336-12.21 1.336c-6.602 0-13.5-.752-20.06-.752c-6.57 0-12.8 .7602-18.01 3.782C82 33.79 78.46 55.74 67.11 67.08C55.77 78.43 33.81 81.97 25.72 95.95C17.74 109.7 25.56 130.5 21.35 146.2C17.27 161.5 .0008 175.5 .0008 192c0 16.5 17.27 30.52 21.34 45.73c4.207 15.75-3.615 36.5 4.361 50.29C33.8 302 55.74 305.5 67.08 316.9c11.35 11.35 14.89 33.3 28.88 41.4c5.227 3.023 11.45 3.777 18.03 3.777c6.543 0 13.43-.7461 20.03-.7461c4.258 0 8.391 .3105 12.23 1.338C161.5 366.7 175.5 384 192 384c16.5 0 30.52-17.27 45.74-21.34C241.6 361.6 245.7 361.3 249.9 361.3zM209.9 359.3C203.4 363.6 196.7 368 192 368c-4.695 0-11.41-4.42-17.9-8.693c-6.914-4.551-14.75-9.707-23.73-12.11c-4.797-1.283-9.996-1.881-16.36-1.881c-3.594 0-7.27 .1953-10.94 .3984c-3.059 .1699-6.113 .3477-9.09 .3477c-4.844 0-8.121-.5313-10.01-1.625c-3.828-2.217-7.387-9.299-10.83-16.15c-3.77-7.504-8.039-16.01-14.75-22.71C71.7 298.9 63.19 294.6 55.69 290.8C48.84 287.4 41.76 283.8 39.54 280C37.41 276.3 37.85 268.5 38.27 260.9C38.74 252.5 39.28 242.9 36.8 233.6c-2.398-8.979-7.555-16.81-12.11-23.72C20.42 203.4 16 196.7 16 192c0-4.697 4.422-11.41 8.695-17.91c4.551-6.91 9.707-14.74 12.11-23.72c2.48-9.277 1.949-18.84 1.48-27.29C37.86 115.5 37.43 107.7 39.57 103.1c2.219-3.83 9.297-7.387 16.14-10.83C63.21 89.37 71.72 85.1 78.43 78.4c6.707-6.705 10.98-15.21 14.75-22.71C96.61 48.84 100.2 41.76 104 39.54c1.891-1.092 5.16-1.623 9.996-1.623c2.98 0 6.039 .1797 9.102 .3496C126.8 38.47 130.5 38.67 134.1 38.67c6.359 0 11.55-.5977 16.34-1.879c8.98-2.398 16.81-7.555 23.72-12.11C180.6 20.42 187.3 16 192 16c4.699 0 11.41 4.42 17.91 8.695c6.91 4.549 14.75 9.705 23.72 12.11c4.797 1.283 9.996 1.881 16.36 1.881c3.594 0 7.266-.1953 10.93-.4004c3.059-.1699 6.113-.3477 9.094-.3477c4.844 0 8.121 .5332 10.01 1.625c3.828 2.219 7.387 9.299 10.83 16.15c3.77 7.504 8.039 16.01 14.75 22.71c6.703 6.707 15.21 10.98 22.71 14.75c6.844 3.441 13.93 6.998 16.14 10.83c2.133 3.689 1.695 11.52 1.273 19.1c-.4687 8.443-1.004 18.01 1.477 27.3c2.398 8.975 7.555 16.8 12.1 23.71C363.6 180.6 368 187.3 368 192c0 4.697-4.422 11.41-8.695 17.91c-4.547 6.91-9.703 14.74-12.11 23.72c-2.48 9.279-1.949 18.85-1.48 27.29c.4219 7.578 .8594 15.42-1.277 19.11c-2.219 3.832-9.301 7.391-16.15 10.83c-7.504 3.768-16.01 8.039-22.72 14.75c-6.699 6.701-10.97 15.2-14.74 22.7c-3.441 6.85-7 13.93-10.83 16.15c-1.891 1.092-5.16 1.625-9.996 1.625c-2.98 0-6.039-.1797-9.102-.3516c-3.676-.2031-7.359-.4004-10.96-.4004c-6.355 0-11.55 .5957-16.34 1.877C224.6 349.6 216.8 354.8 209.9 359.3zM279.1 192c0-48.7-39.39-88-87.1-88S104 143.3 104 192c0 48.58 39.39 88 87.1 88S279.1 240.6 279.1 192zM192 264C152.3 264 120 231.7 120 192S152.3 120 192 120S264 152.3 264 192S231.7 264 192 264zM350.8 353.9c-1.625-4.125-6.375-6.078-10.41-4.484c-4.094 1.641-6.094 6.281-4.469 10.39l31.53 79.34c1.594 4-.375 6.984-1.281 8.094c-.9062 1.078-3.562 3.562-7.719 2.719l-51.13-10.23c-3.438-.7344-7.062 1.016-8.688 4.234l-24.16 47.67C272.2 495.9 268.1 496 266.9 496c-1.188-.0625-5.25-.5625-7.062-4.969l-32.72-79.95c-1.719-4.078-6.344-6.062-10.44-4.375c-4.094 1.672-6.031 6.344-4.375 10.44l32.72 79.95c3.594 8.781 11.74 14.49 21.24 14.88C266.6 511.1 266.1 512 267.3 512c9.094 0 17.2-4.957 21.35-13.14l21.43-42.28l45.19 9.035c8.562 1.688 17.47-1.414 23.12-8.148c5.656-6.766 7.125-16.06 3.875-24.25L350.8 353.9z"/></svg>

<svg xmlns="http://www.w3.org/2000/svg" viewBox="0 0 384 512"><!-- Font Awesome Pro 6.0.0-alpha2 by @fontawesome - https://fontawesome.com License - https://fontawesome.com/license (Commercial License) --><path d="M167.281 406.703C163.094 405.031 158.531 407 156.844 411.078L124.125 491.031C122.312 495.438 118.25 495.938 117.062 496C115.906 496.047 111.781 495.906 109.562 491.625L85.406 443.937C83.781 440.719 80.25 438.969 76.719 439.703L25.594 449.937C21.406 450.781 18.781 448.297 17.875 447.219C16.969 446.109 15 443.125 16.594 439.125L48.125 359.766C49.75 355.656 47.75 351.016 43.656 349.375C39.656 347.844 34.906 349.734 33.25 353.859L1.719 433.219C-1.531 441.406 -0.062 450.687 5.594 457.453C11.25 464.203 20.094 467.391 28.719 465.625L73.906 456.578L95.313 498.859C99.469 507.031 107.594 512 116.688 512C117.031 512 117.375 512 117.719 511.984C127.219 511.594 135.344 505.875 138.938 497.094L171.656 417.141C173.312 413.047 171.375 408.375 167.281 406.703ZM249.949 361.328C256.551 361.328 263.453 362.08 270.008 362.08C276.574 362.08 282.793 361.324 288.016 358.305C301.999 350.217 305.547 328.264 316.891 316.918C328.242 305.568 350.195 302.027 358.289 288.043C366.27 274.256 358.449 253.51 362.656 237.764C366.73 222.535 384 208.514 384 192C384 175.498 366.734 161.484 362.664 146.266C358.457 130.52 366.281 109.773 358.305 95.986C350.219 82.006 328.266 78.459 316.922 67.109C305.57 55.76 302.027 33.807 288.047 25.713C282.82 22.688 276.594 21.934 270.02 21.934C263.473 21.934 256.586 22.682 249.992 22.682C245.734 22.682 241.602 22.369 237.766 21.344C222.535 17.271 208.516 0 192 0C175.5 0 161.484 17.27 146.266 21.336C142.434 22.359 138.309 22.672 134.055 22.672C127.453 22.672 120.551 21.92 113.996 21.92C107.426 21.92 101.207 22.674 95.988 25.695C82.008 33.783 78.461 55.736 67.113 67.082C55.766 78.432 33.809 81.973 25.719 95.957C17.734 109.744 25.555 130.49 21.348 146.236C17.273 161.465 0 175.486 0 192C0 208.502 17.273 222.516 21.34 237.734C25.547 253.48 17.719 274.227 25.695 288.014C33.789 301.994 55.738 305.541 67.082 316.891C78.434 328.24 81.977 350.193 95.957 358.287C101.184 361.311 107.41 362.064 113.984 362.064C120.527 362.064 127.418 361.318 134.012 361.318C138.27 361.318 142.402 361.629 146.238 362.656C161.469 366.729 175.488 384 192 384C208.5 384 222.52 366.73 237.738 362.664C241.57 361.639 245.699 361.328 249.949 361.328ZM209.887 359.311C203.398 363.582 196.688 368 192 368C187.305 368 180.59 363.58 174.098 359.307C167.184 354.756 159.352 349.6 150.371 347.199C145.574 345.916 140.375 345.318 134.012 345.318C130.418 345.318 126.742 345.514 123.074 345.717C120.016 345.887 116.961 346.064 113.984 346.064C109.141 346.064 105.863 345.533 103.973 344.439C100.145 342.223 96.586 335.141 93.145 328.293C89.375 320.789 85.105 312.283 78.398 305.58C71.695 298.871 63.191 294.598 55.688 290.828C48.84 287.387 41.762 283.828 39.543 280C37.41 276.312 37.848 268.479 38.273 260.902C38.742 252.457 39.277 242.887 36.797 233.604C34.398 224.625 29.242 216.793 24.691 209.883C20.418 203.395 16 196.688 16 192C16 187.303 20.422 180.586 24.695 174.09C29.246 167.18 34.402 159.348 36.805 150.365C39.285 141.088 38.754 131.521 38.285 123.08C37.863 115.502 37.43 107.664 39.566 103.969C41.785 100.139 48.863 96.582 55.711 93.143C63.215 89.373 71.723 85.102 78.426 78.396C85.133 71.691 89.402 63.189 93.172 55.687C96.613 48.84 100.172 41.76 104 39.543C105.891 38.451 109.16 37.92 113.996 37.92C116.977 37.92 120.035 38.1 123.098 38.27C126.773 38.475 130.457 38.672 134.055 38.672C140.414 38.672 145.605 38.074 150.395 36.793C159.375 34.395 167.207 29.238 174.117 24.688C180.605 20.416 187.312 16 192 16C196.699 16 203.414 20.42 209.91 24.695C216.82 29.244 224.656 34.4 233.633 36.801C238.43 38.084 243.629 38.682 249.992 38.682C253.586 38.682 257.258 38.486 260.926 38.281C263.984 38.111 267.039 37.934 270.02 37.934C274.863 37.934 278.141 38.467 280.031 39.559C283.859 41.777 287.418 48.857 290.859 55.705C294.629 63.209 298.898 71.715 305.605 78.42C312.309 85.127 320.812 89.4 328.316 93.17C335.16 96.611 342.242 100.168 344.457 103.998C346.59 107.687 346.152 115.521 345.73 123.1C345.262 131.543 344.727 141.113 347.207 150.398C349.605 159.373 354.762 167.203 359.309 174.111C363.582 180.6 368 187.311 368 192C368 196.697 363.578 203.414 359.305 209.91C354.758 216.82 349.602 224.652 347.199 233.633C344.719 242.912 345.25 252.48 345.719 260.922C346.141 268.5 346.578 276.338 344.441 280.027C342.223 283.859 335.141 287.418 328.293 290.857C320.789 294.625 312.285 298.896 305.574 305.605C298.875 312.307 294.605 320.807 290.836 328.307C287.395 335.156 283.836 342.238 280.004 344.455C278.113 345.547 274.844 346.08 270.008 346.08C267.027 346.08 263.969 345.9 260.906 345.729C257.23 345.525 253.547 345.328 249.949 345.328C243.594 345.328 238.398 345.924 233.609 347.205C224.633 349.604 216.797 354.762 209.887 359.311ZM280 192C280 143.301 240.605 104 192 104S104 143.301 104 192C104 240.582 143.395 280 192 280S280 240.582 280 192ZM192 264C152.301 264 120 231.701 120 192S152.301 120 192 120S264 152.299 264 192S231.699 264 192 264ZM350.75 353.875C349.125 349.75 344.375 347.797 340.344 349.391C336.25 351.031 334.25 355.672 335.875 359.781L367.406 439.125C369 443.125 367.031 446.109 366.125 447.219C365.219 448.297 362.563 450.781 358.406 449.938L307.281 439.703C303.844 438.969 300.219 440.719 298.594 443.938L274.438 491.609C272.219 495.906 268.062 496 266.938 496C265.75 495.938 261.688 495.438 259.875 491.031L227.156 411.078C225.438 407 220.813 405.016 216.719 406.703C212.625 408.375 210.688 413.047 212.344 417.141L245.062 497.094C248.656 505.875 256.781 511.594 266.281 511.984C266.625 512 266.969 512 267.312 512C276.406 512 284.531 507.031 288.688 498.844L310.094 456.578L355.281 465.625C363.844 467.312 372.75 464.187 378.406 457.453C384.062 450.687 385.531 441.406 382.281 433.219L350.75 353.875Z"/></svg>
